!!!OTL: 89c. Die Nonne.
!!!ARE: Europa, Mitteleuropa, Deutschland
!!!SCT: E0089B
!!!TXL: @@DE
!!!YEM: Copyright 1995, estate of Helmut Schaffrath.
**kern	**text
*ICvox	*
*M2/4	*
*k[b-]	*
*F:	*
!LO:TX:a:t=Anfang bei Mys 1818.	!
{16fL	Jch
16aJ	.
=1	=1
8cc	ſtand
16ccL	auf
16ffJ	.
16ccL	ho-
16aJ	.
16b-L	-hem
16gJ	.
=2	=2
4a	Ber-
8g}	-ge
{8g	und
=3	=3
8a	ſchaut
16a/L	ins
16ccJ	.
8b-	tie-
16b-L	-fe
16ddJ	.
=4	=4
4cc	Thal:
8r}	.
{8cc	ein
=5	=5
8ff	Schiff-
8ff	-lein
16eeL	ſah
16ddJ	.
8cc	ich
=6	=6
4dd	ſchwim-
4cc	-men,
=7	=7
4b-/	ſchwimmen,
8a}	.
{8cc	wo-
=8	=8
8dd	-rin
16ccL	drei
16b-J	.
8a	Gra-
8g	-fen
=9	=9
4f	warn.
8r}	.
==	==
!!!AGN: erzaehlendes Volks - Lied, Sage, Liebe, Leid, Ballade ?
!!!ONB: ESAC (Essen Associative Code) Database: ERK1
!!!AMT: simple duple
!!!AIN: vox
!!!EED: Helmut Schaffrath
!!!EEV: 1.0
!!!GTL: Liebesgeschichten mit tragischem Schluss
!!!URL-scan: https://rosdok.uni-rostock.de/mcrviewer/recordIdentifier/rosdok_ppn745146120/iview2/phys_0380.iview2?x=-422.27491384562836&y=1666.9204930914566&scale=0.554360769283424&rotation=0&layout=singlePageLayout
!!!ENC: Anna Maria Matuszewska
!!!EEV: 2024/11/28
*-	*-
